X: 4
T: The Lilting Banshee
P: piffero primo b0084
O: traditional Irish
%R: jig
F: http://ancients.sudburymuster.org/mus/ssp/pdf/bluehillF.pdf
Z: 2019 John Chambers <jc:trillian.mit.edu>
M: 6/8
L: 1/8
K: Amix
z |\
EAA EAA | BAB G2A | Bee edB | def gfg |\
eAA eAA | BAB G2A | Bee edB | BAA A2 :|
| z |\
eaa age | dBA G2A | Bee edB | def gfg |\
eaa age | dBA G2A | Bee edB | BAA A2 :|

%%center (way after the after drum bridge)


